app/images/src/svg/types-arrow.svg

<svg width="31" height="15" viewBox="0 0 31 15" fill="none" xmlns="http://www.w3.org/2000/svg">
<path d="M30.7632 7.17661L24.5686 1.09114C24.254 0.781712 23.7492 0.781712 23.4346 1.09114C23.1199 1.40057 23.1199 1.89695 23.4346 2.20638L28.2591 6.95099H0.80628C0.360532 6.95099 0 7.30554 0 7.7439C0 8.18226 0.360532 8.53682 0.80628 8.53682H28.2591L23.4346 13.2685C23.1199 13.578 23.1199 14.0743 23.4346 14.3838C23.5919 14.5385 23.7951 14.6158 24.0049 14.6158C24.2146 14.6158 24.4178 14.5385 24.5752 14.3838L30.7697 8.29185C31.0778 7.98887 31.0778 7.48605 30.7632 7.17661Z" fill="#FF9701"/>
</svg>

<svg width="31" height="15" fill="none" xmlns="http://www.w3.org/2000/svg"><path d="M30.763 7.177 24.57 1.09a.809.809 0 0 0-1.134 0 .777.777 0 0 0 0 1.115L28.26 6.95H.806A.8.8 0 0 0 0 7.744a.8.8 0 0 0 .806.793H28.26l-4.824 4.731a.777.777 0 0 0 0 1.116c.157.155.36.232.57.232.21 0 .413-.077.57-.232l6.195-6.092a.783.783 0 0 0-.007-1.115Z" fill="#FF9701"/></svg>
